svg/u1f469_1f3ff_200d_1f9af.svg

<svg viewBox="0 0 128 128" xmlns="http://www.w3.org/2000/svg">
  <g id="hairGroup">
    <path id="hair" d="M97.15,27.25c0.26-7.36,4.54-11.81-0.17-17.5c-3.11-3.75-9.3-2.18-10.39-0.74 c-2.11,2.79,1.49,5.3,2.32,6.69c1.22,2.05-1.03,10.41,2.66,16.39c5,8.08,10.12,6.82,10.12,6.82S96.9,34.33,97.15,27.25z" fill="#232020"/>
    <g id="hairHighlights">
      <radialGradient id="SVGID_1_" cx="90.0763" cy="108.166" gradientTransform="matrix(0.9937 -0.1118 -0.1352 -1.2015 15.0711 161.7806)" gradientUnits="userSpaceOnUse" r="13.5031">
        <stop offset="0.5264" stop-color="#444140" stop-opacity="0"/>
        <stop offset="1" stop-color="#444140"/>
      </radialGradient>
      <path d="M97.55,23.82c1.03-5.43,3.36-9.32-0.57-14.07c-3.11-3.75-9.3-2.18-10.39-0.74 c-2.11,2.79,1.49,5.3,2.32,6.69C90.13,17.74,97.55,23.82,97.55,23.82z" fill="url(#SVGID_1_)"/>
      <radialGradient id="SVGID_2_" cx="104.137" cy="95.7699" gradientTransform="matrix(-0.9855 0.1697 0.2093 1.2158 184.9042 -101.8112)" gradientUnits="userSpaceOnUse" r="14.4403">
        <stop offset="0" stop-color="#444140"/>
        <stop offset="0.5264" stop-color="#444140" stop-opacity="0"/>
      </radialGradient>
      <path d="M97.15,27.25c0.07-1.84,0.4-3.64,0.84-5.43c0.39-1.58,0.79-2.93-0.23-4.39 c-1.62-2.29-4.85-3.29-7.48-2.32c-0.79,0.29-1.28,0.7-1.17,1.51c0.08,0.59,0.2,1.12,0.21,1.73c0.02,1.38-0.03,2.75-0.01,4.13 c0.06,3.3,0.49,6.73,2.25,9.59c5,8.08,10.12,6.82,10.12,6.82S96.9,34.33,97.15,27.25z" fill="url(#SVGID_2_)"/>
      <radialGradient id="SVGID_3_" cx="97.9972" cy="104.8579" gradientTransform="matrix(-0.9849 0.1729 0.5515 3.1415 134.8777 -322.5777)" gradientUnits="userSpaceOnUse" r="7.9187">
        <stop offset="0.5264" stop-color="#444140" stop-opacity="0"/>
        <stop offset="1" stop-color="#444140"/>
      </radialGradient>
      <path d="M96.94,37.78c0,0-5.82-3.48-7.14-10.29c-0.53-2.72-0.57-5.02-0.5-6.57 c0.06-1.34,0.9-5.74-0.21-7.24" fill="url(#SVGID_3_)"/>
    </g>
  </g>
  <g id="head">
    <path id="head_1_" d="M86.76,13.59c-2.51-4.06-8.2-7.22-12.91-6.44c-5.28,0.87-8.11,4.67-8.86,9.49 c-0.27,1.75-0.22,3.49,0.08,4.72c0.04,0.15,0.33,1.22,0.35,1.56c0.2,1.3-2.32,2.59-2.61,4.02c-0.22,1.08,2.03,1.77,2.21,1.96 c0.88,0.97-0.51,5.58,5.66,6.04c2.37,0.18,1.91,0.03,2.61,0.3c1.09,0.42,0.99,3.32,0.99,3.32s0.61,4.78,4.69,3.51 c4.66-1.44,4.84-4.74,4.84-4.74s-1.73-4.6,1.05-9.38C87.07,24.12,88.38,16.19,86.76,13.59z" fill="#70534A"/>
  </g>
  <path id="mouth_1_" d="M65.64,31.48c0.86,0.05,1.7-0.15,2.43-0.69c0.79-0.59,0.25-1.24-0.66-0.86 c-0.55,0.23-1.32,0.35-2.02,0.22L65.64,31.48z" fill="#1A1717"/>
  <ellipse id="eye_1_" cx="69.24" cy="23.63" fill="#1A1717" rx="1.13" ry="1.74" transform="matrix(0.9995 -0.0315 0.0315 0.9995 -0.7101 2.1929)"/>
  <path id="eyebrow_1_" d="M68.36,21.07c-1.12,0.26-1.34-0.48-0.94-1.04c0.29-0.42,0.98-0.74,2.25-0.42 c1.2,0.3,1.66,1.03,1.97,1.47s0.24,0.86-0.04,0.89C71.22,21.99,69.75,20.74,68.36,21.07z" fill="#1A1717"/>
  <g id="hairGroup_1_">
    <path id="hair_1_" d="M87.27,10.44c-2.33-2.83-6.11-4.64-10.13-4.83c-3.49-0.17-8.28,0.69-11.22,3.6 c-1.77,1.75-2.82,4.05-2.53,6.6c0.17,1.54,1.44,2.32,1.44,2.32s1.45-3.5,5.02-2.61c3.75,0.93,5.38,0.17,5.38,0.17 c-1.26,2.98-0.15,4.61,0.83,5.54c0.56,0.53,1.08,1.16,1.37,1.53c0.15,0.19,0.28,0.18,0.34-0.02c0.15-0.48,0.42-1.35,0.63-1.75 c0.69-1.37,1.81-0.88,1.81-0.88c1.51,0.53,2.05,3.64-0.43,5.47c-0.06,0.04-0.23,0.16-0.13,0.47c0.98,3.15,4.24,3.54,4.46,3.43 c0,0,0.01,0,0.01-0.01c0.02-0.01,0.04-0.02,0.05-0.03c0.5-0.23,0.79-0.64,0.88-1.22c0.31-2.09,1.7-2.98,2.35-3.89 c0.76-1.05,1.62-2.24,2.11-5.53C89.98,15.68,89.2,12.8,87.27,10.44z" fill="#232020"/>
    <radialGradient id="hairhighlights_1_" cx="76.4952" cy="112.4614" gradientTransform="matrix(1 0 0 -1 0 130)" gradientUnits="userSpaceOnUse" r="12.5648">
      <stop offset="0.5264" stop-color="#444140" stop-opacity="0"/>
      <stop offset="1" stop-color="#444140"/>
    </radialGradient>
    <path id="hairhighlights" d="M87.27,10.44c-2.33-2.83-6.11-4.64-10.13-4.83 c-3.49-0.17-8.28,0.69-11.22,3.6c-1.77,1.75-2.82,4.05-2.53,6.6c0.17,1.54,1.44,2.32,1.44,2.32s1.45-3.5,5.02-2.61 c3.75,0.93,5.38,0.17,5.38,0.17c-1.26,2.98-0.15,4.61,0.83,5.54c0.56,0.53,1.08,1.16,1.37,1.53c0.15,0.19,0.28,0.18,0.34-0.02 c0.15-0.48,0.42-1.35,0.63-1.75c0.69-1.37,1.81-0.88,1.81-0.88c1.51,0.53,2.05,3.64-0.43,5.47c-0.06,0.04-0.23,0.16-0.13,0.47 c0.98,3.15,4.24,3.54,4.46,3.43c0,0,0.01,0,0.01-0.01c0.02-0.01,0.04-0.02,0.05-0.03c0.5-0.23,0.79-0.64,0.88-1.22 c0.31-2.09,1.7-2.98,2.35-3.89c0.76-1.05,1.62-2.24,2.11-5.53C89.98,15.68,89.2,12.8,87.27,10.44z" fill="url(#hairhighlights_1_)"/>
  </g>
  <g id="cane">
    <g>
      <linearGradient id="SVGID_4_" gradientTransform="matrix(0.9991 0.0432 0.0432 -0.9991 3.7744 120.713)" gradientUnits="userSpaceOnUse" x1="52.4391" x2="31.491" y1="40.7398" y2="15.0242">
        <stop offset="0.4697" stop-color="#E0E0E0"/>
        <stop offset="0.9915" stop-color="#BDBDBD"/>
      </linearGradient>
      <polygon fill="url(#SVGID_4_)" points="23.68,121.23 21.55,119.19 57.34,81.65 67.22,71.39 69.35,73.42 54.03,89.42 "/>
      <rect fill="#FF3D00" height="2.95" transform="matrix(0.69 -0.7239 0.7239 0.69 -73.2029 56.184)" width="18.44" x="19.76" y="112.07"/>
      <linearGradient id="SVGID_5_" gradientTransform="matrix(0.9981 0.0607 -0.0607 0.9981 -3.057 0.3117)" gradientUnits="userSpaceOnUse" x1="34.6211" x2="30.6055" y1="116.5502" y2="120.564">
        <stop offset="0.4697" stop-color="#E0E0E0"/>
        <stop offset="0.9915" stop-color="#BDBDBD"/>
      </linearGradient>
      <circle cx="21.81" cy="121.05" fill="url(#SVGID_5_)" r="2.86"/>
    </g>
    <path d="M57.34,81.65l2.15,2.05l11.79-12.28c0.39-0.4,0.37-1.04-0.03-1.43l-0.68-0.65 c-0.4-0.38-1.04-0.37-1.42,0.03L57.34,81.65z" fill="#636262"/>
  </g>
  <g id="leg_x5F_right">
    <path d="M104.36,108.76l-14-15.97c-0.87-1-1.39-2.25-1.47-3.57l-1.37-22.35l-15.42,1.7l4.86,23.06 c0.79,3.73,2.88,7.06,5.91,9.37l16.41,12.53L104.36,108.76z" fill="#646464"/>
  </g>
  <g id="leg_x5F_left">
    <path d="M87.33,63.18l-17.49,1.6l-4.5,20.29c-0.83,3.74-1.12,7.59-0.85,11.42l1.63,23.12h6.64l2.94-24.9 c0,0,4.98-13.26,5.14-13.33c3.26-1.54,7.38-3.89,7.38-9.64C88.22,70.92,87.33,63.18,87.33,63.18z" fill="#7C7C7C"/>
  </g>
  <g id="shoe_x5F_left">
    <path d="M73.85,123.98c0.63,0,1.14-0.51,1.14-1.14l0-2.79c0-1.89-1.92-4.05-1.92-4.05h-6.94l-6.25,2.06 c-1.51,0.59-2.51,2.05-2.53,3.68l0,1.26c0,0.55,0.44,1,1,1L73.85,123.98z" fill="#4568AD"/>
  </g>
  <g id="shoe_x5F_right">
    <path d="M108.72,111.9c0.44-0.45,0.44-1.17,0-1.61l-1.97-1.97c-1.34-1.34-4.22-1.51-4.22-1.51l-4.91,4.91 l-2.96,5.88c-0.65,1.49-0.33,3.23,0.81,4.39l0.89,0.89c0.39,0.39,1.02,0.39,1.41,0L108.72,111.9z" fill="#325599"/>
  </g>
  <radialGradient id="SVGID_6_" cx="73.7035" cy="77.3572" gradientTransform="matrix(1 0 0 -1 0 130)" gradientUnits="userSpaceOnUse" r="21.1882">
    <stop offset="0.3637" stop-color="#651FFF"/>
    <stop offset="1" stop-color="#530EEB"/>
  </radialGradient>
  <path d="M86.15,73.76h-13.9c-2.26,0-4.09-2.17-4.09-4.84l2.14-22.39c0.43-4.09,1.87-7.95,4.66-9.61 c4.86-3.39,8.56-1.33,9.96,0.79c1,1.52,1.42,3.27,1.65,5.85l2.45,25.34C89.02,71.8,88.41,73.76,86.15,73.76z" fill="url(#SVGID_6_)"/>
  <g id="arm_2_">
    <linearGradient id="arm_1_" gradientTransform="matrix(1 0 0 -1 0 130)" gradientUnits="userSpaceOnUse" x1="78.1824" x2="75.3916" y1="63.4697" y2="76.4929">
      <stop offset="0.5979" stop-color="#70534A"/>
      <stop offset="1" stop-color="#5C4037"/>
    </linearGradient>
    <path id="arm" d="M86.11,57.33l-1.8-9.96l-8,0.86l2.46,9.94l-9.36,9.69c-2.65,2.67,2.19,5.24,3.9,4.14 l8.52-6.89C83.34,63.81,86.56,61.6,86.11,57.33z" fill="url(#arm_1_)"/>
  </g>
  <g id="hand_1_">
    <linearGradient id="hand_2_" gradientTransform="matrix(1 0 0 -1 0 130)" gradientUnits="userSpaceOnUse" x1="72.515" x2="64.1429" y1="61.3425" y2="53.9006">
      <stop offset="0.5979" stop-color="#70534A"/>
      <stop offset="1" stop-color="#5C4037"/>
    </linearGradient>
    <path id="hand" d="M70.57,68.37c0.16-0.12,0.24-0.34,0.18-0.55c-0.08-0.26-0.37-0.41-0.63-0.32 c-0.02,0.01-2.85,0.93-4.49,1.58c-0.47,0.19-1.9,0.75-1.94,2.5c-0.03,1.33-0.04,3.58-0.04,3.58l2.31-2.4 c-0.06,0.89-0.13,2.8-0.15,3.59c-0.04,1.33,0.98,1.86,2.35,1.12c2.06-1.11,3.26-1.39,4.19-2.88c0.29-0.48,0.78-3.59,0.96-4.24 L70.57,68.37z" fill="url(#hand_2_)"/>
  </g>
  <g id="arm_x5F_shirt">
    <path d="M75.64,53.35l10.84-1.97l-1.75-9.67c-0.54-2.98-3.39-4.96-6.37-4.42l-0.05,0.01 c-2.98,0.54-4.96,3.39-4.42,6.37L75.64,53.35z" fill="#3615AF"/>
  </g>
  <path id="cord_2_" d="M77.28,73.04c-1.11-3.09-4.96-6.54-8.13-6.25c-2.2,0-2.12,1.77-2.12,1.77l2.25-0.78 c2.33-0.29,6.09,2.94,7.05,5.6c0.37,1.04,0.55,2.45-0.75,3.26c-0.18,0.11-0.36,0.13-0.56,0.06c-0.6-0.22-1.76-1.76-2.41-2.92 c0,0-0.11,0.6-0.26,0.83C72.26,74.74,72,75.08,72,75.08c0.63,1.03,1.86,2.26,2.68,2.55c0.19,0.07,0.39,0.1,0.57,0.1 c0.3,0,0.59-0.08,0.85-0.25C77.55,76.59,77.97,74.97,77.28,73.04z" fill="#504F4F"/>
</svg>

<svg viewBox="0 0 128 128" xmlns="http://www.w3.org/2000/svg">
  <defs>
    <radialGradient id="SVGID_6_" cx="73.7035" cy="-52.6428" gradientTransform="matrix(1 0 0 -1 0 0)" gradientUnits="userSpaceOnUse" r="21.1882">
      <stop offset="0.3637" stop-color="#651FFF"/>
      <stop offset="1" stop-color="#530EEB"/>
    </radialGradient>
    <linearGradient id="arm_1_" gradientTransform="matrix(1 0 0 -1 0 0)" gradientUnits="userSpaceOnUse" x1="78.1824" x2="75.3916" y1="-66.5303" y2="-53.5071">
      <stop offset="0.5979" stop-color="#70534A"/>
      <stop offset="1" stop-color="#5C4037"/>
    </linearGradient>
    <radialGradient id="hairhighlights_1_" cx="76.4952" cy="-17.5386" gradientTransform="matrix(1 0 0 -1 0 0)" gradientUnits="userSpaceOnUse" r="12.5648">
      <stop offset="0.5264" stop-color="#444140" stop-opacity="0"/>
      <stop offset="1" stop-color="#444140"/>
    </radialGradient>
    <linearGradient id="hand_2_" gradientTransform="matrix(1 0 0 -1 0 0)" gradientUnits="userSpaceOnUse" x1="72.515" x2="64.1429" y1="-68.6575" y2="-76.0994">
      <stop offset="0.5979" stop-color="#70534A"/>
      <stop offset="1" stop-color="#5C4037"/>
    </linearGradient>
    <radialGradient id="SVGID_1_" cx="86.962431" cy="-26.193109" gradientTransform="matrix(0.9937 -0.1118 -0.1352 -1.2015 0 0)" gradientUnits="userSpaceOnUse" r="13.5031">
      <stop offset="0.5264" stop-color="#444140" stop-opacity="0"/>
      <stop offset="1" stop-color="#444140"/>
    </radialGradient>
    <radialGradient id="SVGID_2_" cx="-95.35865" cy="39.87519" gradientTransform="matrix(-0.9855 0.1697 0.2093 1.2158 0 0)" gradientUnits="userSpaceOnUse" r="14.4403">
      <stop offset="0" stop-color="#444140"/>
      <stop offset="0.5264" stop-color="#444140" stop-opacity="0"/>
    </radialGradient>
    <radialGradient id="SVGID_3_" cx="-90.632811" cy="12.556906" gradientTransform="matrix(-0.9849 0.1729 0.5515 3.1415 0 0)" gradientUnits="userSpaceOnUse" r="7.9187">
      <stop offset="0.5264" stop-color="#444140" stop-opacity="0"/>
      <stop offset="1" stop-color="#444140"/>
    </radialGradient>
    <linearGradient id="SVGID_4_" gradientTransform="matrix(0.9991 0.0432 0.0432 -0.9991 0 0)" gradientUnits="userSpaceOnUse" x1="61.424302" x2="40.476202" y1="-79.693429" y2="-105.409029">
      <stop offset="0.4697" stop-color="#E0E0E0"/>
      <stop offset="0.9915" stop-color="#BDBDBD"/>
    </linearGradient>
    <linearGradient id="SVGID_5_" gradientTransform="matrix(0.9981 0.0607 -0.0607 0.9981 0 0)" gradientUnits="userSpaceOnUse" x1="31.588489" x2="27.572889" y1="117.046923" y2="121.060723">
      <stop offset="0.4697" stop-color="#E0E0E0"/>
      <stop offset="0.9915" stop-color="#BDBDBD"/>
    </linearGradient>
  </defs>
  <path id="hair" d="M97.15,27.25 C97.41,19.89 101.69,15.44 96.98,9.75 C93.87,6 87.68,7.57 86.59,9.01 C84.48,11.8 88.08,14.31 88.91,15.7 C90.13,17.75 87.88,26.11 91.57,32.09 C96.57,40.17 101.69,38.91 101.69,38.91 C101.69,38.91 96.9,34.33 97.15,27.25 Z" fill="#232020"/>
  <path d="M97.55,23.82 C98.58,18.39 100.91,14.5 96.98,9.75 C93.87,6 87.68,7.57 86.59,9.01 C84.48,11.8 88.08,14.31 88.91,15.7 C90.13,17.74 97.55,23.82 97.55,23.82 Z" fill="url(#SVGID_1_)"/>
  <path d="M97.15,27.25 C97.22,25.41 97.55,23.61 97.99,21.82 C98.38,20.24 98.78,18.89 97.76,17.43 C96.14,15.14 92.91,14.14 90.28,15.11 C89.49,15.4 89,15.81 89.11,16.62 C89.19,17.21 89.31,17.74 89.32,18.35 C89.34,19.73 89.29,21.1 89.31,22.48 C89.37,25.78 89.8,29.21 91.56,32.07 C96.56,40.15 101.68,38.89 101.68,38.89 C101.68,38.89 96.9,34.33 97.15,27.25 Z" fill="url(#SVGID_2_)"/>
  <path d="M96.94,37.78 C96.94,37.78 91.12,34.3 89.8,27.49 C89.27,24.77 89.23,22.47 89.3,20.92 C89.36,19.58 90.2,15.18 89.09,13.68" fill="url(#SVGID_3_)"/>
  <path id="head_1_" d="M86.76,13.59 C84.25,9.53 78.56,6.37 73.85,7.15 C68.57,8.02 65.74,11.82 64.99,16.64 C64.72,18.39 64.77,20.13 65.07,21.36 C65.11,21.51 65.4,22.58 65.42,22.92 C65.62,24.22 63.1,25.51 62.81,26.94 C62.59,28.02 64.84,28.71 65.02,28.9 C65.9,29.87 64.51,34.48 70.68,34.94 C73.05,35.12 72.59,34.97 73.29,35.24 C74.38,35.66 74.28,38.56 74.28,38.56 C74.28,38.56 74.89,43.34 78.97,42.07 C83.63,40.63 83.81,37.33 83.81,37.33 C83.81,37.33 82.08,32.73 84.86,27.95 C87.07,24.12 88.38,16.19 86.76,13.59 Z" fill="#70534A"/>
  <path id="mouth_1_" d="M65.64,31.48 C66.5,31.53 67.34,31.33 68.07,30.79 C68.86,30.2 68.32,29.55 67.41,29.93 C66.86,30.16 66.09,30.28 65.39,30.15 L65.64,31.48 Z" fill="#1A1717"/>
  <path id="eye_1_" d="M70.369,23.594 C70.399,24.555 69.918,25.349 69.294,25.369 C68.671,25.389 68.14,24.626 68.11,23.666 C68.08,22.705 68.561,21.911 69.185,21.891 C69.809,21.871 70.339,22.634 70.369,23.594 Z" fill="#1A1717"/>
  <path id="eyebrow_1_" d="M68.36,21.07 C67.24,21.33 67.02,20.59 67.42,20.03 C67.71,19.61 68.4,19.29 69.67,19.61 C70.87,19.91 71.33,20.64 71.64,21.08 C71.95,21.52 71.88,21.94 71.6,21.97 C71.22,21.99 69.75,20.74 68.36,21.07 Z" fill="#1A1717"/>
  <path id="hair_1_" d="M87.27,10.44 C84.94,7.61 81.16,5.8 77.14,5.61 C73.65,5.44 68.86,6.3 65.92,9.21 C64.15,10.96 63.1,13.26 63.39,15.81 C63.56,17.35 64.83,18.13 64.83,18.13 C64.83,18.13 66.28,14.63 69.85,15.52 C73.6,16.45 75.23,15.69 75.23,15.69 C73.97,18.67 75.08,20.3 76.06,21.23 C76.62,21.76 77.14,22.39 77.43,22.76 C77.58,22.95 77.71,22.94 77.77,22.74 C77.92,22.26 78.19,21.39 78.4,20.99 C79.09,19.62 80.21,20.11 80.21,20.11 C81.72,20.64 82.26,23.75 79.78,25.58 C79.72,25.62 79.55,25.74 79.65,26.05 C80.63,29.2 83.89,29.59 84.11,29.48 C84.11,29.48 84.12,29.48 84.12,29.47 C84.14,29.46 84.16,29.45 84.17,29.44 C84.67,29.21 84.96,28.8 85.05,28.22 C85.36,26.13 86.75,25.24 87.4,24.33 C88.16,23.28 89.02,22.09 89.51,18.8 C89.98,15.68 89.2,12.8 87.27,10.44 Z" fill="#232020"/>
  <path id="hairhighlights" d="M87.27,10.44 C84.94,7.61 81.16,5.8 77.14,5.61 C73.65,5.44 68.86,6.3 65.92,9.21 C64.15,10.96 63.1,13.26 63.39,15.81 C63.56,17.35 64.83,18.13 64.83,18.13 C64.83,18.13 66.28,14.63 69.85,15.52 C73.6,16.45 75.23,15.69 75.23,15.69 C73.97,18.67 75.08,20.3 76.06,21.23 C76.62,21.76 77.14,22.39 77.43,22.76 C77.58,22.95 77.71,22.94 77.77,22.74 C77.92,22.26 78.19,21.39 78.4,20.99 C79.09,19.62 80.21,20.11 80.21,20.11 C81.72,20.64 82.26,23.75 79.78,25.58 C79.72,25.62 79.55,25.74 79.65,26.05 C80.63,29.2 83.89,29.59 84.11,29.48 C84.11,29.48 84.12,29.48 84.12,29.47 C84.14,29.46 84.16,29.45 84.17,29.44 C84.67,29.21 84.96,28.8 85.05,28.22 C85.36,26.13 86.75,25.24 87.4,24.33 C88.16,23.28 89.02,22.09 89.51,18.8 C89.98,15.68 89.2,12.8 87.27,10.44 Z" fill="url(#hairhighlights_1_)"/>
  <path d="M23.68,121.23 L21.55,119.19 L57.34,81.65 L67.22,71.39 L69.35,73.42 L54.03,89.42 Z" fill="url(#SVGID_4_)"/>
  <path d="M21.559,119.208 L34.283,105.859 L36.418,107.895 L23.694,121.244 L21.559,119.208 Z" fill="#FF3D00"/>
  <path d="M24.67,121.05 A2.86 2.86 0 1 1 18.95,121.05 A2.86 2.86 0 1 1 24.67,121.05 Z" fill="url(#SVGID_5_)"/>
  <path d="M57.34,81.65 L59.49,83.7 L71.28,71.42 C71.67,71.02 71.65,70.38 71.25,69.99 L70.57,69.34 C70.17,68.96 69.53,68.97 69.15,69.37 L57.34,81.65 Z" fill="#636262"/>
  <path d="M104.36,108.76 L90.36,92.79 C89.49,91.79 88.97,90.54 88.89,89.22 L87.52,66.87 L72.1,68.57 L76.96,91.63 C77.75,95.36 79.84,98.69 82.87,101 L99.28,113.53 L104.36,108.76 Z" fill="#646464"/>
  <path d="M87.33,63.18 L69.84,64.78 L65.34,85.07 C64.51,88.81 64.22,92.66 64.49,96.49 L66.12,119.61 L72.76,119.61 L75.7,94.71 C75.7,94.71 80.68,81.45 80.84,81.38 C84.1,79.84 88.22,77.49 88.22,71.74 C88.22,70.92 87.33,63.18 87.33,63.18 Z" fill="#7C7C7C"/>
  <path d="M73.85,123.98 C74.48,123.98 74.99,123.47 74.99,122.84 L74.99,120.05 C74.99,118.16 73.07,116 73.07,116 L66.13,116 L59.88,118.06 C58.37,118.65 57.37,120.11 57.35,121.74 L57.35,123 C57.35,123.55 57.79,124 58.35,124 L73.85,123.98 Z" fill="#4568AD"/>
  <path d="M108.72,111.9 C109.16,111.45 109.16,110.73 108.72,110.29 L106.75,108.32 C105.41,106.98 102.53,106.81 102.53,106.81 L97.62,111.72 L94.66,117.6 C94.01,119.09 94.33,120.83 95.47,121.99 L96.36,122.88 C96.75,123.27 97.38,123.27 97.77,122.88 L108.72,111.9 Z" fill="#325599"/>
  <path d="M86.15,73.76 L72.25,73.76 C69.99,73.76 68.16,71.59 68.16,68.92 L70.3,46.53 C70.73,42.44 72.17,38.58 74.96,36.92 C79.82,33.53 83.52,35.59 84.92,37.71 C85.92,39.23 86.34,40.98 86.57,43.56 L89.02,68.9 C89.02,71.8 88.41,73.76 86.15,73.76 Z" fill="url(#SVGID_6_)"/>
  <path id="arm" d="M86.11,57.33 L84.31,47.37 L76.31,48.23 L78.77,58.17 L69.41,67.86 C66.76,70.53 71.6,73.1 73.31,72 L81.83,65.11 C83.34,63.81 86.56,61.6 86.11,57.33 Z" fill="url(#arm_1_)"/>
  <path id="hand" d="M70.57,68.37 C70.73,68.25 70.81,68.03 70.75,67.82 C70.67,67.56 70.38,67.41 70.12,67.5 C70.1,67.51 67.27,68.43 65.63,69.08 C65.16,69.27 63.73,69.83 63.69,71.58 C63.66,72.91 63.65,75.16 63.65,75.16 L65.96,72.76 C65.9,73.65 65.83,75.56 65.81,76.35 C65.77,77.68 66.79,78.21 68.16,77.47 C70.22,76.36 71.42,76.08 72.35,74.59 C72.64,74.11 73.13,71 73.31,70.35 L70.57,68.37 Z" fill="url(#hand_2_)"/>
  <path d="M75.64,53.35 L86.48,51.38 L84.73,41.71 C84.19,38.73 81.34,36.75 78.36,37.29 L78.31,37.3 C75.33,37.84 73.35,40.69 73.89,43.67 L75.64,53.35 Z" fill="#3615AF"/>
  <path id="cord_2_" d="M77.28,73.04 C76.17,69.95 72.32,66.5 69.15,66.79 C66.95,66.79 67.03,68.56 67.03,68.56 L69.28,67.78 C71.61,67.49 75.37,70.72 76.33,73.38 C76.7,74.42 76.88,75.83 75.58,76.64 C75.4,76.75 75.22,76.77 75.02,76.7 C74.42,76.48 73.26,74.94 72.61,73.78 C72.61,73.78 72.5,74.38 72.35,74.61 C72.26,74.74 72,75.08 72,75.08 C72.63,76.11 73.86,77.34 74.68,77.63 C74.87,77.7 75.07,77.73 75.25,77.73 C75.55,77.73 75.84,77.65 76.1,77.48 C77.55,76.59 77.97,74.97 77.28,73.04 Z" fill="#504F4F"/>
</svg>
